X:1
T:The Little Hunter's Song
T:The Little Hunter's Song
T:Album for the Young
T:Robert Schumann, Op. 68, No. 7
C:Robert Schumann, Op. 68, No. 7
%%score { ( 1 3 ) | 2 }
L:1/8
Q:1/4=104
M:6/8
K:F
V:1 treble nm="Piano" snm="Pno."
V:3 treble 
V:2 bass 
V:1
!f!"^Frisch und fröhlich" !1!C | !>!!3!F2 C !>!F2 C | !>!F3- F2 .C | .!3!F.!1!A.c .f.!2!c.d | %4
 .!2!c.A.!3!F !2!!4![EG]2!f! !1!C | !>!!3!F2 C !>!F2 C | !>!F3- F2 .!3!F | .!1!A.c.f .a.!3!f.g | %8
 .f.!1!d.!2!!5![=Be] !3!c2 ::!ff! !1!c | !5!g2 c g2 c | g3- g2!p! .C | %12
 .!2!!4![EG].[EG].C .!3!F.F.C | .!2!!5![EB].[EB].C !3!!5![FA]2!ff! !1!A | [^ce]2 A [ce]2 A | %15
 [^ce]3- [ce]2!p! A, | .!2!!4![^CE].[CE].A, .!3!D.D.A, | .!2!!5![^CG].[CG].A, [DF]2!f! .!1!F | %18
 .!4!B.!1!d.!2!f .!4!b.f.g | .f.!1!d.!4!B{/!3!A} !^!!2![EG]2 .!1!F | .!4!B.!1!d.f .b.f.g | %21
 .f.d.B{/A} [EG]2 !3![Ec] | [Ff]2 [Ec] [Ff]2 !3![^CA] | [Dd]2 [^CA] [Dd]2 !4![DB] | %24
 !^!!1!!2![EG]3 !^!!1!!5![Ec]3 | !^!!2!!4![FA]3 z z !3![Ec] | f2 !3!c [Ff]2 [^CA] | %27
 [Dd]2 [^CA] [Dd]2 !4![DB] | !^![EG]3 !^![Ec]3 | !^!F3 z z :| %30
V:2
!ped! !3!C, | !>!!1!F,2 C, !>!F,2 C, | !>!F,3- F,2!ped-up! .!3!C, | .!1!F,.!4!A,.C .F.!2!C.!1!D | %4
 .!2!C.A,.F, C2!ped! !3!C, | !>!!1!F,2 C, !>!F,2 C, | !>!F,3- F,2!ped-up! .!5!F, | %7
 .A,.C.F[K:treble] .!2!A.!4!F.!1!G | .F.D!5!!1![G,F] !3!!2![CE]2 ::!ped! !5!C | !1!G2 C G2 C | %11
 G3- G2!ped-up![K:bass] .C, | .!1!B,.B,.!5!C, .!1!A,.A,.C, | .!1!G,.G,.C, !2!F,2!ped! !5!A, | %14
 [^CE]2 A, [CE]2 A, | [^CE]3- [CE]2!ped-up! A,, | .!1!G,.G,.A,, .!1!F,.F,.A,, | %17
 .!1!E,.E,.A,, !2!D,2 .!5!F, | !>!!2![B,D]2 F, !>![B,D]2 F, | !>![B,D]2 F, !>!!2!!1![B,C]2 .!5!F, | %20
 !>!!2![B,D]2 F, !>![B,D]2 F, | !>![B,D]2 F, !>!!2!!1![B,C]2 [B,C] | %22
 [A,C]2 [B,C] [A,C]2 !2![G,A,] | [F,A,]2 [G,A,] [F,A,]2 [B,,G,] | !^![C,G,]3 !^![C,G,]2 .!3!C, | %25
 .!^!!1!F,.!4!A,.C .F.!4!A,.!2![B,C] | [A,C]2 [B,C] [A,C]2 [G,A,] | %27
 [F,A,]2 [G,A,] [F,A,]2 [B,,G,] | !^![C,G,]3 !^![C,G,]2 .!3!C, | .!^!!1!F,.!4!A,.C .F z :| %30
V:3
 x | x6 | x6 | x6 | x6 | x6 | x6 | x6 | x5 :: x | x6 | x6 | x6 | x6 | x6 | x6 | x6 | x6 | x6 | x6 | %20
 x6 | x6 | x6 | x6 | x6 | x6 | F !^!!1!G2 x3 | x6 | x6 | x5 :| %30

